icons/1_Primary/CSAM.svg

<svg xmlns="http://www.w3.org/2000/svg" width="1024" height="1024" fill="none">
   <g clip-path="url(#a)">
      <path fill="#BA6561" d="M512 1024c282.77 0 512-229.23 512-512S794.77 0 512 0 0 229.23 0 512s229.23 512 512 512Z"/>
      <path fill="#fff" d="M727 278.6c-66 24.727-131.914 49.647-197.74 74.76a27.829 27.829 0 0 1-20.85.41c-68.36-24.133-136.724-48.25-205.09-72.35-4.45-1.57-9-2.82-14.22-4.56v469.89c3.42-1.16 5.67-1.83 7.84-2.7 69-28.07 138.13-55.9 206.95-84.41a34.071 34.071 0 0 1 14.801-3.185A34.07 34.07 0 0 1 533.41 660c66.62 29.54 133.53 58.41 201.5 88V276c-3.35 1.09-5.67 1.74-7.91 2.6Zm-208 339-.57-225.6c18.21-6.66 36.44-13.21 54.6-20 42.69-15.8 85.34-31.83 129.09-48.23v373.44C640.57 671 579.79 644.3 519 617.63v-.03Zm162.1-107a14.003 14.003 0 0 1-12.86 13.31 14.339 14.339 0 0 1-13.66-12.66c-.32-5.93 6.92-13.46 13-13.53a14.577 14.577 0 0 1 13.51 12.88h.01Z"/>
   </g>
   <defs>
      <clipPath id="a">
         <path fill="#fff" d="M0 0h1024v1024H0z"/>
      </clipPath>
   </defs>
</svg>

<svg width="1024" height="1024" viewBox="0 0 1024 1024" fill="none" xmlns="http://www.w3.org/2000/svg">
<g clip-path="url(#clip0_2_1935)">
<path d="M512 1024C794.77 1024 1024 794.77 1024 512C1024 229.23 794.77 0 512 0C229.23 0 0 229.23 0 512C0 794.77 229.23 1024 512 1024Z" fill="#BA6561"/>
<path d="M727 278.6C661 303.327 595.086 328.247 529.26 353.36C522.625 356.194 515.15 356.341 508.41 353.77C440.05 329.637 371.686 305.52 303.32 281.42C298.87 279.85 294.32 278.6 289.1 276.86V746.75C292.52 745.59 294.77 744.92 296.94 744.05C365.94 715.98 435.07 688.15 503.89 659.64C508.522 657.482 513.581 656.393 518.691 656.455C523.801 656.518 528.831 657.729 533.41 660C600.03 689.54 666.94 718.41 734.91 748V276C731.56 277.09 729.24 277.74 727 278.6ZM519 617.6L518.43 392C536.64 385.34 554.87 378.79 573.03 372C615.72 356.2 658.37 340.17 702.12 323.77V697.21C640.57 671 579.79 644.3 519 617.63V617.6ZM681.1 510.6C680.943 514.003 679.55 517.233 677.183 519.683C674.815 522.133 671.636 523.636 668.24 523.91C664.828 523.771 661.579 522.42 659.075 520.099C656.571 517.779 654.977 514.641 654.58 511.25C654.26 505.32 661.5 497.79 667.58 497.72C670.982 497.948 674.198 499.361 676.666 501.715C679.134 504.068 680.7 507.212 681.09 510.6H681.1Z" fill="white"/>
</g>
<defs>
<clipPath id="clip0_2_1935">
<rect width="1024" height="1024" fill="white"/>
</clipPath>
</defs>
</svg>
